dist/img/6.svg

<svg version="1.1" xmlns="http://www.w3.org/2000/svg" xmlns:xlink="http://www.w3.org/1999/xlink" x="0px" y="0px" width="512px" height="512px"><path d="M442.1221313,243.5202026h-69.6289062l18.9855957-88.1845703h66.8682251C501.7265015,155.3356323,512,176.765152,512,193.7141418C512,217.7007141,496.5444946,243.5202026,442.1221313,243.5202026z M486.1013184,319.3493958c0,23.9865417-15.4441833,49.8060608-69.8891602,49.8060608H346.583252l18.9855957-88.2524414h66.822937C475.7712402,280.9030151,486.1013184,302.4682922,486.1013184,319.3493958z M280.0431213,164.5908356h-69.5723419l18.9855957-88.1845703h66.7550507c43.4473572,0,53.7887573,21.4294968,53.7887573,38.3785019C350.0001831,138.7713165,334.4880981,164.5908356,280.0431213,164.5908356z M325.764679,247.5141754c0,23.9865875-15.4328613,49.8173676-69.8778534,49.8173676h-69.5610352l18.9403381-88.1393127h66.8455658C315.4911804,209.1922302,325.764679,230.5651855,325.764679,247.5141754z M299.9225464,385.7876587c0,24.0544434-15.4328613,49.8060608-69.7646942,49.8060608h-69.7194519l18.9855957-88.2524109h66.8681946C289.6490479,347.3413086,299.9224854,368.8387146,299.9225464,385.7876587z M93.7173004,164.5908356H24.1902275l18.872448-88.1845703h66.868187c43.3794708,0,53.766098,21.4294968,53.766098,38.3785019C163.6969604,138.7713165,148.1622772,164.5908356,93.7173004,164.5908356z M139.585968,247.5141754c0,23.9865875-15.5573349,49.8173676-69.8665237,49.8173676H0l19.0082226-88.1393127h66.8229446C129.2558899,209.1922302,139.585968,230.5651855,139.585968,247.5141754z"/></svg>

<svg xmlns="http://www.w3.org/2000/svg" width="512" height="512"><path d="M442.122 243.52h-69.629l18.986-88.184h66.868c43.38 0 53.653 21.43 53.653 38.378 0 23.987-15.456 49.806-69.878 49.806zm43.98 75.83c0 23.986-15.445 49.805-69.89 49.805h-69.629l18.986-88.252h66.823c43.38 0 53.71 21.565 53.71 38.446zm-206.06-154.76H210.47l18.985-88.184h66.755c43.448 0 53.79 21.43 53.79 38.379 0 23.986-15.513 49.806-69.958 49.806zm45.722 82.924c0 23.987-15.433 49.818-69.878 49.818h-69.561l18.94-88.14h66.846c43.38 0 53.653 21.373 53.653 38.322zm-25.842 138.274c0 24.054-15.433 49.806-69.765 49.806h-69.72l18.986-88.253h66.868c43.357 0 53.63 21.498 53.63 38.447zM93.717 164.59H24.19l18.873-88.185h66.868c43.38 0 53.766 21.43 53.766 38.379 0 23.986-15.535 49.806-69.98 49.806zm45.869 82.923c0 23.987-15.557 49.818-69.867 49.818H0l19.008-88.14h66.823c43.425 0 53.755 21.373 53.755 38.322z"/></svg>
